dhis-2/dhis-support/dhis-support-system/src/main/resources/SVGs/medicines_negative.svg

<svg width="48" height="48" viewBox="0 0 48 48" fill="none" xmlns="http://www.w3.org/2000/svg">
<path fill-rule="evenodd" clip-rule="evenodd" d="M0 0V47.9994H47.9994V0H0ZM27.8667 4.05855C29.7736 4.06245 32.0906 4.64334 34.4766 5.77533C35.9875 6.54232 36.4415 6.57052 35.2556 8.3593L30.9256 15.1368C29.7946 16.9078 29.7136 16.8918 28.1406 15.5138C24.1337 12.1518 22.2247 8.1387 23.7107 5.80263C24.4617 4.62794 25.9597 4.05465 27.8667 4.05855ZM8.72889 4.06045C10.0114 4.02165 11.2874 4.60224 12.0963 5.72653L14.4323 8.97259L16.7683 12.2208L16.3613 12.5118L21.0332 19.0058C22.3272 20.8047 21.9222 23.2957 20.1232 24.5897C18.3243 25.8837 15.8353 25.4767 14.5413 23.6777L9.86758 17.1858L9.46328 17.4768L7.12541 14.2298L4.78954 10.9819C3.49526 9.18349 3.90285 6.69452 5.70163 5.40033L6.51212 4.81634C7.18671 4.33105 7.9595 4.08385 8.72889 4.06045ZM37.4705 7.7265C37.8195 7.6909 38.2215 8.0372 38.9875 8.70299C43.0165 12.0698 44.9394 16.0968 43.4485 18.4388C41.9545 20.7777 37.4985 20.7307 32.7516 18.4978C31.2146 17.7218 30.7106 17.7488 31.9156 15.8668L36.2725 9.04089C36.8235 8.1786 37.1205 7.762 37.4705 7.7265ZM15.1988 13.3478L13.5208 14.5568L12.7088 15.1408L11.0289 16.3498L11.6189 17.1678L12.3868 18.2338L12.6578 18.6108L13.4238 19.6758L14.6188 21.3377L15.6578 22.7807C16.4888 23.9357 18.0868 24.1957 19.2418 23.3647C20.3967 22.5337 20.6587 20.9357 19.8277 19.7808L18.7888 18.3378L17.5938 16.6758L16.8278 15.6108L15.7888 14.1678L15.1988 13.3478ZM34.7226 25.0057C37.4895 25.0887 40.1655 26.3767 41.9445 28.6616C42.4285 29.3246 42.1125 29.6956 41.6965 29.9276L26.7377 38.2515C26.3177 38.4855 25.8617 38.7325 25.5467 37.8295C23.9127 33.4796 25.6767 28.5126 29.8176 26.2007C31.3696 25.3387 33.0616 24.9557 34.7226 25.0057ZM17.7638 27.3067C18.1718 27.2877 18.6178 27.4777 18.9788 27.7767C19.4588 28.1766 19.7858 28.7726 19.6618 29.3356L16.7618 42.4975C16.5418 43.4945 14.5078 44.4184 13.7678 43.8194L4.45694 36.2865C3.62445 35.6126 4.10745 33.4296 5.12104 32.9686L17.3729 27.3957C17.4959 27.3407 17.6279 27.3127 17.7639 27.3067H17.7638ZM42.7885 30.5486C43.0035 30.5706 43.2005 30.7436 43.3625 31.2206C44.9714 35.5606 43.2045 40.5055 39.0755 42.8105C34.9336 45.1124 29.7826 44.0034 26.9377 40.3355C26.4457 39.6605 26.7817 39.3135 27.2207 39.0695L42.1065 30.7866C42.3405 30.6566 42.5735 30.5266 42.7885 30.5486Z" fill="#333333"/>
</svg>

<?xml version="1.0" encoding="UTF-8" standalone="no"?>
<!-- Created with Inkscape (http://www.inkscape.org/) -->
<svg id="svg8" xmlns:rdf="http://www.w3.org/1999/02/22-rdf-syntax-ns#" xmlns="http://www.w3.org/2000/svg" xmlns:osb="http://www.openswatchbook.org/uri/2009/osb" height="48" width="48" version="1.1" xmlns:cc="http://creativecommons.org/ns#" viewBox="0 0 12.7 12.7" xmlns:dc="http://purl.org/dc/elements/1.1/">
 <title id="title4753">UIO-icon</title>
 <metadata id="metadata5">
  <rdf:RDF>
   <cc:Work rdf:about="">
    <dc:format>image/svg+xml</dc:format>
    <dc:type rdf:resource="http://purl.org/dc/dcmitype/StillImage"/>
    <dc:title>UIO-icon</dc:title>
    <dc:creator>
     <cc:Agent>
      <dc:title>Joaquín Urbano</dc:title>
     </cc:Agent>
    </dc:creator>
    <dc:rights>
     <cc:Agent>
      <dc:title>GPL</dc:title>
     </cc:Agent>
    </dc:rights>
   </cc:Work>
  </rdf:RDF>
 </metadata>
 <g id="layer1" fill="#333" transform="translate(0,-284.3)">
  <path id="rect949" d="m0 0v48h48v-48h-48zm27.867 4.0586c1.907 0.0039 4.224 0.5848 6.61 1.7168 1.511 0.767 1.965 0.7952 0.779 2.584l-4.33 6.7776c-1.131 1.771-1.212 1.755-2.785 0.377-4.007-3.362-5.916-7.3752-4.43-9.7113 0.751-1.1747 2.249-1.748 4.156-1.7441zm-19.138 0.0019c1.2825-0.0388 2.5585 0.5418 3.3675 1.6661l2.336 3.2461 2.336 3.2483-0.407 0.291 4.672 6.494c1.294 1.799 0.889 4.29-0.91 5.584s-4.288 0.887-5.582-0.912l-4.6738-6.492-0.4043 0.291-2.3379-3.247-2.3359-3.248c-1.2943-1.7984-0.8867-4.2874 0.9121-5.5816l0.8105-0.584c0.6746-0.4853 1.4474-0.7325 2.2168-0.7559zm28.742 3.6661c0.349-0.0356 0.751 0.3107 1.517 0.9765 4.029 3.3669 5.952 7.3939 4.461 9.7359-1.494 2.339-5.95 2.292-10.697 0.059-1.537-0.776-2.041-0.749-0.836-2.631l4.357-6.826c0.551-0.8623 0.848-1.2789 1.198-1.3144zm-22.272 5.6214l-1.678 1.209-0.812 0.584-1.68 1.209 0.59 0.818 0.768 1.066 0.271 0.377 0.766 1.065 1.195 1.662 1.039 1.443c0.831 1.155 2.429 1.415 3.584 0.584s1.417-2.429 0.586-3.584l-1.039-1.443-1.195-1.662-0.766-1.065-1.039-1.443-0.59-0.82zm19.524 11.658c2.767 0.083 5.443 1.371 7.222 3.656 0.484 0.663 0.168 1.034-0.248 1.266l-14.959 8.324c-0.42 0.234-0.876 0.481-1.191-0.422-1.634-4.35 0.13-9.317 4.271-11.629 1.552-0.862 3.244-1.245 4.905-1.195zm-16.959 2.301c0.408-0.019 0.854 0.171 1.215 0.47 0.48 0.4 0.807 0.996 0.683 1.559l-2.9 13.162c-0.22 0.997-2.254 1.921-2.994 1.322l-9.311-7.533c-0.8325-0.674-0.3495-2.857 0.6641-3.318l12.252-5.573c0.123-0.055 0.255-0.083 0.391-0.089zm25.025 3.242c0.215 0.022 0.412 0.195 0.574 0.672 1.609 4.34-0.158 9.285-4.287 11.59-4.142 2.302-9.293 1.193-12.138-2.475-0.492-0.675-0.156-1.022 0.283-1.266l14.886-8.283c0.234-0.13 0.467-0.26 0.682-0.238z" fill-rule="evenodd" transform="matrix(.26458 0 0 .26458 0 284.3)"/>
 </g>
</svg>
